packages/foundations/assets/icons/functional/images/transportation/boat_32.svg

<svg width="32" height="32" viewBox="0 0 32 32" fill="none" xmlns="http://www.w3.org/2000/svg">
<g clip-path="url(#clip0_187_851)">
<path fill-rule="evenodd" clip-rule="evenodd" d="M6.94072 20.8008C7.3552 21.1998 8.54132 22.5321 9.49887 22.5229C10.4564 22.5136 11.5724 21.3847 11.9726 20.8922C12.3727 20.3998 13.1245 20.3997 13.5247 20.8922C13.9249 21.3846 15.0512 22.5321 16.0008 22.5229C16.9504 22.5136 18.0993 21.3514 18.4727 20.8921C18.8461 20.4328 19.5254 20.402 19.9398 20.7998C20.3541 21.1977 21.5243 22.5248 22.5006 22.5229C23.4769 22.5209 24.5992 21.3516 24.9727 20.8921C25.3462 20.4326 26.0258 20.402 26.4401 20.8002C26.8545 21.1985 28.0078 22.5296 28.9987 22.5229C29.5509 22.5229 29.9987 22.9706 29.9987 23.5229C29.9987 24.0357 29.6004 24.5241 28.9928 24.5229C27.9609 24.5171 26.8795 23.9977 25.7487 22.9649C24.608 24.0113 23.5254 24.5306 22.5006 24.5228C21.4758 24.5149 20.3918 23.9953 19.2487 22.9639C18.1594 23.9992 17.0774 24.5161 16.0027 24.5146C14.928 24.513 13.8433 23.9964 12.7487 22.9649C11.603 24.0035 10.5199 24.5229 9.49929 24.5229C8.47866 24.5229 7.39511 24.0039 6.24866 22.9659C5.12181 24.0039 4.03848 24.5229 2.99866 24.5229C2.44637 24.5229 1.99866 24.0751 1.99866 23.5229C1.99866 23.01 2.40342 22.5229 2.99866 22.5229C3.59389 22.5229 5.09853 21.3533 5.47206 20.8929C5.84559 20.4324 6.52624 20.4017 6.94072 20.8008ZM20.516 9.52134C20.9279 9.97404 21.2634 10.4245 21.5196 10.8209L28.8258 9.53791C29.6413 9.39482 30.2504 10.24 29.9004 10.9561L24.8467 19.0529C24.5539 19.5212 23.937 19.6636 23.4687 19.3709C23.0338 19.0991 22.88 18.5477 23.0946 18.0953L24.4737 15.8821L9.16775 18.5085C8.62341 18.6018 8.10644 18.2363 8.01306 17.6919C7.92634 17.1865 8.23535 16.7046 8.71576 16.5636L25.8907 13.6101L26.9627 11.8939L4.73239 15.7957C4.30548 15.8564 4.04152 16.1036 4.00344 16.6342L3.99866 19.5229C3.99866 20.0751 3.55094 20.5229 2.99866 20.5229C2.48582 20.5229 2.06315 20.1368 2.00538 19.6395L2.00403 16.5678C2.08241 15.0863 3.01077 14.097 4.24826 13.8498L8.40873 13.1203C9.08342 12.1397 9.31239 10.913 9.02728 9.74713C8.89812 9.21899 9.21415 8.69256 9.72421 8.54786L15.8366 7.53608C17.6149 7.24403 19.1842 8.05782 20.516 9.52134ZM16.3445 9.48721L11.1349 10.3503C11.1856 11.1472 11.0814 11.9433 10.8319 12.6949L19.3252 11.2041C19.2327 11.0895 19.1364 10.977 19.0368 10.8674C18.1721 9.91722 17.262 9.41388 16.3445 9.48721Z" fill="#1A1C1F"/>
</g>
<defs>
<clipPath id="clip0_187_851">
<rect width="32" height="32" fill="white"/>
</clipPath>
</defs>
</svg>

<svg xmlns="http://www.w3.org/2000/svg" width="32" height="32" fill="none"><g clip-path="url(#a)"><path fill="#1A1C1F" fill-rule="evenodd" d="M6.94 20.8c.415.4 1.601 1.732 2.559 1.723.957-.01 2.073-1.138 2.474-1.63a1 1 0 0 1 1.552 0c.4.492 1.526 1.64 2.476 1.63s2.098-1.172 2.472-1.63a1 1 0 0 1 1.467-.093c.414.398 1.584 1.725 2.56 1.723.977-.002 2.1-1.171 2.473-1.63a1 1 0 0 1 1.467-.093c.415.398 1.568 1.73 2.559 1.723a1 1 0 0 1 1 1 .994.994 0 0 1-1.006 1q-1.548-.009-3.244-1.558-1.712 1.57-3.248 1.558-1.538-.012-3.252-1.56-1.635 1.554-3.246 1.552-1.613-.003-3.254-1.55-1.72 1.558-3.25 1.558t-3.25-1.557q-1.69 1.557-3.25 1.557a1 1 0 0 1 0-2c.595 0 2.1-1.17 2.473-1.63a1 1 0 0 1 1.469-.092M20.517 9.522c.412.453.747.903 1.004 1.3l7.306-1.283c.815-.143 1.424.702 1.074 1.418l-5.053 8.097a1 1 0 0 1-1.752-.958l1.379-2.213L9.168 18.51a1 1 0 0 1-.452-1.945L25.89 13.61l1.072-1.716-22.23 3.902c-.428.06-.691.308-.73.838L4 19.523a1 1 0 0 1-1.994.117l-.001-3.072c.078-1.482 1.007-2.471 2.244-2.718l4.16-.73c.675-.98.904-2.207.62-3.373a1 1 0 0 1 .696-1.2l6.113-1.01c1.778-.293 3.347.52 4.679 1.984m-4.171-.034-5.21.863a6.2 6.2 0 0 1-.303 2.345l8.493-1.49a8 8 0 0 0-.288-.338c-.865-.95-1.775-1.453-2.692-1.38" clip-rule="evenodd"/></g><defs><clipPath id="a"><path fill="#fff" d="M0 0h32v32H0z"/></clipPath></defs></svg>
